packages/kaspersky-hexa-ui-icons/src/iconsSVGs/24/PetsProfile.svg

<svg width="24" height="24" viewBox="0 0 24 24" fill="none" xmlns="http://www.w3.org/2000/svg">
<path fill-rule="evenodd" clip-rule="evenodd" d="M9.35472 12.5086C10.4978 10.3505 13.5008 10.3502 14.6438 12.5086L15.1184 13.4051C15.3357 13.8155 15.6061 14.1908 15.9201 14.5203L16.5256 15.156C17.5547 16.2358 17.5972 17.6922 17.053 18.7752C16.5062 19.8627 15.3 20.6904 13.8137 20.3982L12.8664 20.2117C12.2934 20.099 11.7051 20.0991 11.1321 20.2117L10.1848 20.3982C8.69833 20.6906 7.49236 19.8628 6.94554 18.7752C6.40111 17.6921 6.44365 16.2359 7.47288 15.156L8.07835 14.5203C8.39227 14.1909 8.66286 13.8154 8.88011 13.4051L9.35472 12.5086ZM12.8762 13.4441C12.4845 12.7046 11.5141 12.7048 11.1223 13.4441L10.6477 14.3416C10.3458 14.9116 9.96842 15.4365 9.5266 15.9002L8.92015 16.5359C8.54928 16.925 8.5161 17.4459 8.73265 17.8767C8.94696 18.303 9.33927 18.5268 9.79906 18.4363L10.7463 18.2498C11.5744 18.087 12.4251 18.0869 13.2532 18.2498L14.2004 18.4363C14.6598 18.5263 15.0517 18.3027 15.2659 17.8767C15.4822 17.446 15.449 16.9249 15.0784 16.5359L14.4719 15.9002C14.03 15.4365 13.6527 14.9117 13.3508 14.3416L12.8762 13.4441Z" fill="black"/>
<path fill-rule="evenodd" clip-rule="evenodd" d="M3.17015 9.29081C4.773 8.36557 6.67345 9.28671 7.53734 10.783C8.40091 12.2793 8.24837 14.386 6.64574 15.3113C5.04305 16.2365 3.14258 15.3151 2.27855 13.8191C1.41463 12.3228 1.56726 10.2162 3.17015 9.29081ZM5.80492 11.783C5.30158 10.9112 4.51512 10.8236 4.17015 11.0223C3.82542 11.2213 3.50741 11.9469 4.01097 12.8191C4.51454 13.6907 5.30109 13.7779 5.64574 13.5789C5.99038 13.3798 6.30813 12.6549 5.80492 11.783Z" fill="black"/>
<path fill-rule="evenodd" clip-rule="evenodd" d="M16.4631 10.783C17.327 9.28664 19.2274 8.36538 20.8303 9.29081C22.4329 10.2163 22.5858 12.3229 21.7219 13.8191C20.858 15.3152 18.9574 16.2361 17.3547 15.3113C15.7519 14.3859 15.5993 12.2793 16.4631 10.783ZM19.8303 11.0223C19.4855 10.8234 18.699 10.911 18.1955 11.783C17.692 12.6552 18.01 13.3799 18.3547 13.5789C18.6996 13.7776 19.4861 13.6906 19.9895 12.8191C20.4929 11.9472 20.1749 11.2215 19.8303 11.0223Z" fill="black"/>
<path fill-rule="evenodd" clip-rule="evenodd" d="M8.08421 3.60722C8.98202 3.40004 9.83584 3.71154 10.469 4.24003C11.1014 4.76808 11.5667 5.54655 11.7717 6.43436C11.9766 7.32212 11.8995 8.22549 11.5627 8.97733C11.2254 9.73004 10.5945 10.3842 9.69652 10.5916C8.7985 10.7989 7.94497 10.4874 7.31175 9.95878C6.67934 9.43064 6.21303 8.65233 6.00804 7.76444C5.80328 6.8767 5.8811 5.97321 6.218 5.22147C6.55543 4.46889 7.18634 3.81451 8.08421 3.60722ZM9.18675 5.77518C8.91944 5.55218 8.68876 5.51963 8.53343 5.55546C8.37822 5.59142 8.18559 5.72167 8.0432 6.03886C7.90037 6.35752 7.84134 6.81274 7.95726 7.31522C8.0733 7.81759 8.32597 8.19978 8.59398 8.42362C8.86122 8.64666 9.09096 8.67909 9.24632 8.64335C9.40168 8.60745 9.59503 8.47775 9.73753 8.15995C9.88024 7.84132 9.93933 7.38684 9.82347 6.88456C9.70738 6.38211 9.45482 5.99898 9.18675 5.77518Z" fill="black"/>
<path fill-rule="evenodd" clip-rule="evenodd" d="M13.5285 4.24003C14.1617 3.7115 15.0154 3.39997 15.9133 3.60722C16.8112 3.8145 17.4421 4.46889 17.7795 5.22147C18.1164 5.97325 18.1933 6.87667 17.9885 7.76444C17.7835 8.65229 17.3181 9.43065 16.6858 9.95878C16.0526 10.4874 15.199 10.7988 14.301 10.5916C13.4031 10.3842 12.7722 9.73004 12.4348 8.97733C12.098 8.22553 12.0199 7.32209 12.2248 6.43436C12.4299 5.54649 12.8961 4.76809 13.5285 4.24003ZM15.4631 5.55546C15.3078 5.51979 15.0778 5.55245 14.8108 5.77518C14.5427 5.99899 14.2901 6.38211 14.1741 6.88456C14.0582 7.38685 14.1173 7.84131 14.26 8.15995C14.4024 8.47741 14.595 8.60731 14.7502 8.64335C14.9056 8.67922 15.1361 8.64691 15.4035 8.42362C15.6716 8.19978 15.9242 7.81762 16.0403 7.31522C16.1562 6.81273 16.0972 6.35752 15.9543 6.03886C15.8118 5.72139 15.6184 5.59131 15.4631 5.55546Z" fill="black"/>
</svg>

<svg xmlns="http://www.w3.org/2000/svg" width="24" height="24" fill="none" viewBox="0 0 24 24"><path fill="#000" fill-rule="evenodd" d="M13.5285 4.24c.6332-.5285 1.4869-.84 2.3848-.6328.8979.2073 1.5288.8617 1.8662 1.6143.3369.7517.4138 1.6552.209 2.543-.205.8878-.6704 1.6661-1.3027 2.1943-.6332.5286-1.4868.84-2.3848.6328-.8979-.2074-1.5288-.8616-1.8662-1.6143-.3368-.7518-.4149-1.6552-.21-2.543.2051-.8878.6713-1.6662 1.3037-2.1943m-5.4443-.6328c.8978-.2072 1.7516.1043 2.3848.6328.6324.528 1.0977 1.3065 1.3027 2.1944.2049.8877.1278 1.7911-.209 2.543-.3374.7526-.9682 1.4068-1.8662 1.6142-.898.2073-1.7515-.1042-2.3848-.6328-.6324-.5282-1.0987-1.3065-1.3037-2.1944-.2047-.8877-.1269-1.7912.21-2.543.3374-.7525.9683-1.4069 1.8662-1.6142m1.1025 2.168c-.2673-.223-.498-.2556-.6533-.2197-.1552.036-.3478.1662-.4902.4834-.1428.3186-.2019.7738-.086 1.2763.1161.5024.3688.8846.6368 1.1084.2672.223.497.2555.6523.2197.1554-.0358.3487-.1655.4912-.4834.1427-.3186.2018-.773.086-1.2753-.1161-.5025-.3687-.8856-.6368-1.1094m6.2764-.2197c-.1553-.0357-.3853-.003-.6523.2197-.2681.2238-.5207.6069-.6367 1.1094-.1159.5022-.0568.9567.0859 1.2753.1424.3175.335.4474.4902.4834.1554.036.3859.0036.6533-.2197.2681-.2238.5207-.606.6368-1.1084.1159-.5025.0569-.9577-.086-1.2763-.1425-.3175-.3359-.4476-.4912-.4834m5.3672 3.7353c-1.6029-.9254-3.5033-.0042-4.3672 1.4922-.8638 1.4963-.7112 3.6029.8916 4.5283 1.6027.9248 3.5033.0039 4.3672-1.4922s.711-3.6028-.8916-4.5283M7.5373 10.783C6.6735 9.2867 4.773 8.3656 3.1701 9.2908c-1.6028.9254-1.7555 3.032-.8916 4.5283.864 1.496 2.7645 2.4174 4.3672 1.4922s1.7552-3.032.8916-4.5283m1.8174 1.7256a2.9696 2.9696 0 0 1 5.2891 0l.4746.8965c.2173.4104.4877.7857.8017 1.1152l.6055.6357c1.0291 1.0798 1.0716 2.5362.5274 3.6192-.5468 1.0875-1.753 1.9152-3.2393 1.623l-.9473-.1865a4.49 4.49 0 0 0-1.7343 0l-.9473.1865c-1.4865.2924-2.6924-.5354-3.2393-1.623-.5444-1.0831-.5019-2.5393.5274-3.6192l.6054-.6357a5.03 5.03 0 0 0 .8018-1.1152zm8.8408-.7256c.5035-.872 1.29-.9596 1.6348-.7607.3446.1992.6626.9249.1592 1.7968-.5034.8715-1.2899.9585-1.6348.7598-.3447-.199-.6627-.9237-.1592-1.7959m-14.0254-.7607c.345-.1987 1.1315-.1111 1.6348.7607.5032.8719.1855 1.5968-.1592 1.7959-.3446.199-1.1312.1118-1.6347-.7598-.5036-.8722-.1856-1.5978.1591-1.7968m8.7061 2.4218c-.3917-.7395-1.3621-.7393-1.7539 0l-.4746.8975a7.03 7.03 0 0 1-1.1211 1.5586l-.6065.6357c-.3708.3891-.404.91-.1875 1.3408.2144.4263.6067.6501 1.0665.5596l.9472-.1865a6.49 6.49 0 0 1 2.5069 0l.9472.1865c.4594.09.8513-.1336 1.0654-.5596.2164-.4307.1832-.9518-.1875-1.3408l-.6064-.6357a7.02 7.02 0 0 1-1.1211-1.5586z"/></svg>
